src/pos-icons/select-inverse.svg

<svg height="24" viewBox="0 0 24 24" width="24" xmlns="http://www.w3.org/2000/svg"><path d="m5 3h2v2h2v-2h2v2h2v-2h2v2h2v-2h2v2h2v2h-2v2h2v2h-2v2h2v2h-2v2h2v2h-2v2h-2v-2h-2v2h-2v-2h-2v2h-2v-2h-2v2h-2v-2h-2v-2h2v-2h-2v-2h2v-2h-2v-2h2v-2h-2v-2h2z"/></svg>

<?xml version="1.0" encoding="UTF-8"?><!DOCTYPE svg PUBLIC "-//W3C//DTD SVG 1.1//EN" "http://www.w3.org/Graphics/SVG/1.1/DTD/svg11.dtd"><svg xmlns="http://www.w3.org/2000/svg" xmlns:xlink="http://www.w3.org/1999/xlink" version="1.1" id="mdi-select-inverse" width="24" height="24" viewBox="0 0 24 24"><path d="M5,3H7V5H9V3H11V5H13V3H15V5H17V3H19V5H21V7H19V9H21V11H19V13H21V15H19V17H21V19H19V21H17V19H15V21H13V19H11V21H9V19H7V21H5V19H3V17H5V15H3V13H5V11H3V9H5V7H3V5H5V3Z" /></svg>
